X: 216
U:~=!turn!
U:n=!diminuendo(!
U:p=!diminuendo)!
M:C
L:1/8
K:A minor
"Slow" EG TG2 {^FG}cG TG2{^FG} | c>GA>G (c/A/).G/.E/ G2 | A,A A>B (c/B/)A/^G/ A2 | A,A (A>B) (c/B/)A/^G/ A2 | Cc Tc2 eg Tg2 | ea Ta>g ec' HTc'2 |
c'b/a/ Tag/e/ ed/c/ Tcd/e/ | TA,>B,TC>D (TEA) A2 :: eg Tg2 {^fg}c'g Tg2 | eg Tg2 {^fg}c'g Tg2 | ea Ta>b (c'/b/)a/^g/ a2 |


